X:1
T:Multi-Key Modal Timothy Swan, 1801
T:Isaac Watts, 1709 (Hymn 95, Book 2)
T:Calvary
T:Transcribed from Swan's New England Harmony, 1801.
%%score [ 1 2 3 4 ]
L:1/8
Q:1/4=100
M:3/4
K:F
V:1 treble nm="Tr." snm="Tr."
V:2 treble nm="C." snm="C."
V:3 treble-8 nm="T." snm="T."
V:4 bass nm="B." snm="B."
V:1
 A2 A2 A2 | (c2 G2) A2 | c4 c2 | c4 cA | (f2 c2) cA | (G2 F2) G2 | G6 | C2 D2 E2 | F4 A2 | A4 A2 | %10
 A4 d2 | (c>B A2) GA | (B2 A2) G2 | A4 z2 | c3 c d2 | f4 z2 | f3 d dc | (f2 c2) z c | (d2 A2) c2 | %19
 c4 A2 | c4 cB | A4 G2 | G4 z2 |[M:2/4] A2 cd | c2 z2 | c2 dd | c3 f |[M:3/4] d4 d2 | (A2 c2) c2 | %29
 d4 z2 |[M:2/4] d2 AA | c2 z2 | c2 cA | d3 f |[M:3/4] d4 cB | (A2 c2) c2 | f4 c2 | c4 c2 | f4 f2 | %39
 (e2 c2) A2 | d4 c2 | c4 c2 | c4 cB | A4 A2 | (A2 c2) c2 | (f2 c2) d2 | c4 f2 | (c2 A2) c2 | %48
 (c2 A2) c2 | d4 A2 | A2 c2 cc | F4 A2 | c4 c2 | c4 FG | A4 B2 | A4 z2 | A2 A2 d2 | c4 c2 | f4 c2 | %59
[M:3/8] cAF | c2 c | cfe | fFG | Acf | ecc | c2 c | c z c | d2 z | c3 | c z c |[M:3/4] c4 fe | %71
 d4 c2 | c4 c2 | c4 c2 | d4 z2 | F4 z2 | [Bd]6 |[M:3/8] z2 c | c2 c/c/ | cAF | (c2 d/)f/ | cA z | %82
[M:3/4] fc A2 F2 | c4 fA | G4 A2 | (A2 G2) c2 | (G2 A2) d2 | A4 cB | A4 Ac | c4 A2 | c4 c2 | %91
 c4 z2 | (c2 A2) z2 | A6 |] %94
V:2
"^In–fi–nite  grief!  a   –  ma  –  zing    woe!  Be     –    hold  my       blee     –    ding  Lord!   Hell and the Jews con–spired     his  death,  And" D2 A2 F2 | %1
 G4 A2 | (A2 G2) F2 | E4 F2 | (F2 A2) c2 | (c2 A2) BG | G6 | C2 D2 E2 | F4 A2 | (A>G F2) E2 | %10
 F4 A2 | %11
"^used         the        Ro   –   man  sword.    O, the sharp pangs,           O,    the  sharp   pangs        of     smar  –  ting    pain   My       dear     Re –" A4 G2 | %12
 (G2 A2) BG | F4 z2 | G3 A F2 | F4 z2 | F3 G A2 | (A2 B2) z A | (B2 A2) GF | c4 A>G | (F2 G2) AB | %21
"^–dee–mer bore,        When knotty whips     and ragged thorns   His       sacred   bo  –  dy      tore!            But knotty whips        and ragged" (c2 A2) G2 | %22
 G4 z2 |[M:2/4] F2 FF | AG z2 | A2 FG | F3 F |[M:3/4] F4 F2 | F4 F2 | F4 z2 |[M:2/4] F2 AF | %31
 FE z2 | F2 FD | %33
"^thorns  In       vain  do         I            ac  –  cuse;     In             vain  I        blame  the  Ro  –  man  bands, And   more  in – sul – ting   Jews.  'Twas" F3 F | %34
[M:3/4] (D2 G2) E2 | (F2 G2) A2 | B4 A2 | G4 G2 | F4 BA | (G2 F2) c2 | A4 G2 | G4 G2 | G4 G2 | %43
 A4 A>G | %44
"^you,    my       sins,      my       cru     –     el         sins,    My         cru    –    el        sins    His  chief  tor–men–tors were;  Each  of              my" (F2 A2) cA | %45
 F4 DG | G4 G2 | A4 c2 | A4 F>G | A4 A>G | F2 FG FF | F4 F2 | (F>G A2) A2 | %53
"^crimes  be   –   came        a          nail,        And un–be – lief    the       spear.  'Twere     you     that     pulled  the      ven – geance  down   Up –" (c2 G2) AG | %54
 F4 D2 | A4 z2 | F2 F2 F2 | G4 Ac | F4 FA |[M:3/8] c2 c/A/ | c2 c/A/ | c2 c/A/ | F2 G | %63
"^–on    his    guilt –less head:  Break, break, my heart!    O          burst,   mine     eyes,    mine  eyes,   And  let      my       sor  –  rows     bleed," A2 F | %64
 G2 G | G2 G | A z F | F2 z | A3 | F z G |[M:3/4] G4 G2 | F4 G2 | (A2 c2) cA | (A2 G2) GF | A6 | %75
"^bleed,    bleed;          Strike, strike, mighty  grace,   my     flin        –         ty     soul,                 Till     mel  –  ting      wa   –   ters    flow,  And"{D} F6 | %76
{D} F6 |[M:3/8] z2 c | c2 c/c/ | AFA | (G2 F/)G/ | AF z |[M:3/4] cA AF FC | (F2 G2) A2 | G4 F2 | %85
"^deep      re – pen – tance  drown      mine    eyes     In         un    –    dis   –  sem – bled   woe,                  woe,          woe." (F2 E2) G2 | %86
 (G2 F2) A2 | (A2 D2) AG | (F2 E2) F2 | (A2 F2) AF | G4 FE | (F2 E2) z2 | (E2 F2) z2 | A6 |] %94
V:3
 A2 c2 d2 | (e2 f2) ed | (c2 A2) AG | G4 A2 |{A} c4 f2 | (e2 A2){A} d2 | c6 | C2 D2 E2 | F4 A2 | %9
 (F2 AG) FE | D4 A2 | (A>B c2) c2 | (d2 A2) G2 | F4 z2 | c3 c f2 | (d2 f2) z2 | d3 f df | %17
 (d2 f2) z f | f3 f (f2 | g4) f2 | (A2 G2) FE | (F2 c2) d2 | c4 z2 |[M:2/4] A2 BA | fe z2 | F2 BB | %26
 F3 F |[M:3/4] A4 A2 | A4 A2 |{A} B4 z2 |[M:2/4] A2 FF | G2 z2 | F2 FF | F3 F |[M:3/4] B4 AB | %35
 c4 c2 | d4 f2 |{f} e4 fd | d4 dc | c4 B2 | A4 AG | G4 GF | F4 FE | D4 c2 | c4 f2 | (c2 A2) d2 | %46
 (A3 G) FE | D4 A2 |{A} c4 c2 | A4 A2 | d2 fe fA | c4 f2 | A4 BA |{A} G4 FE | (F2 BA) GF | D4 z2 | %56
 A2 d2 df | e4 A2 |{A} c4 f2 |[M:3/8] fcf | fcA | c2 c | AGd | cAd | cAG | c2 f | f z A/c/ | B2 z | %68
 (e2 c) | f z A |[M:3/4] (A2 G2) F2 | (B2 A2) c2 | (c2 A2) GF | (A2 G2) GF |{F} A6 | B4 z2 | F6 | %77
[M:3/8] z2 g | g2 g/g/ | f2 f | (e2 d/)d/ | dc z |[M:3/4] dc cB BA | (TA2 G2) F2 | G4 FD | %85
 (TD2 C2) C2 | C2 D2 F2 | (F2 AG) FE | D4 A2 | (A2 c2) d2 | G4 G2 | A4 z2 |{A} c4 z2 | c6 |] %94
V:4
 D,2 A,,2 D,2 | C,4 A,2 | (A,2 C2) C,2 | C,4 F,2 | F,4 F,2 | (C,2 F,2) G,2 | C,6 | C,2 D,2 E,2 | %8
 F,4 D,2 | A,4 A,,2 | D,4 D,2 | A,,4 C,2 | (G,2 F,2) E,2 | F,4 z2 | C3 A, B,2 | (B,2 F,2) z2 | %16
 B,,3 B,, B,,2 | F,4 z F, | D,3 F, (D,F, | C,4) F,2 | (F,2 C,2) F,G, | A,4 G,2 | C,4 z2 | %23
[M:2/4] F,2 F,F, | C,2 z2 | F,2 F,F, | F,3 D, |[M:3/4] D,4 D,2 | F,4 F,2 | B,,4 z2 | %30
[M:2/4] D,2 D,F, | C,2 z2 | A,,2 A,,A,, | B,,3 F, |[M:3/4] G,4 A,G, | F,2 C,2 A,,C, | %36
 (B,2 G,2) F,A, | C4 C,2 | B,4 B,,2 | (C,2 F,2) G,>A, | D,4 C2 | C4 C2 | C4 A,G, | A,4 A,2 | %44
 F,4 F,2 | F,4 G,2 | C4 C2 | A,4 A,2 | (A,3 G,) F,>E, | D,4 D,2 | D,2 C,2 F,F, | F,4 F,2 | %52
 F,4 A,,2 | C,4 F,E, | D,4 B,2 | A,4 z2 | F,2 D,2 B,,2 | C,4 F,2 | F,4 F,2 |[M:3/8] F,2 F, | %60
 F,2 C | A,F,C, | F,2 G, | A,2 B, | C2 C, | C,2 C, | F, z F, | B,,2 z | A,,3 | F, z C | %70
[M:3/4] (C2 C,2) C2 | (D2 D,2) C,2 | F,4 C,F, | (A,,2 C,2) C,F, | D,6 | B,,6- | B,,6 | %77
[M:3/8] z2 C, | C2 C/C,/ | F,2 F, | C,/A,,/C, D,/E,/ | F,2 z |[M:3/4] F,2 F,2 F,2 | %83
 (F,2 C,2) D,F, | C,4 F,2 | (A,2 G,2) C,2 | (G,2 F,2) D,2 | D,4 F,G, | A,4 F,2 | F,4 A,,B,, | %90
 C,4 C,2 | A,,4 z2 | A,,4 z2 | A,,6 |] %94

